X: 853
P: Longways for as many as will
M: 6/4
L: 1/4
K: C
c/d/ |\
d>fg ag^f | g3 =f3 | e>dc B2A | aba g>fe |\
f>g f/e/ e2d | d3- d2 |] d/e/ | f>gf e2a | a>b^g a2"_Bass"D/E/ |
"_Treble"A>Bc d>cB | c3 G3 | E>DC C2B, | C3- C2 |]

